public/images/footer/github-social-icon.svg

<svg height="33" viewBox="0 0 29 33" width="29" xmlns="http://www.w3.org/2000/svg"><path d="m731.289419 1093 14.289419 8.25v16.5l-14.289419 8.25-14.289419-8.25v-16.5zm6.737952 14.0637h-.001395c.090689-.04208.09627-.46677.009766-1.27409-.073946-.806-.256719-1.55283-.5539-2.23261l-.439492.09467c-.292995.04207-.758997.2038-1.407772.47729-.639008.27743-1.307315.64164-2.006318 1.08606-.474373-.12622-1.184537-.19197-2.133283-.19197-.904098 0-1.612867.06443-2.131887.19197-1.534736-.99928-2.815543-1.55415-3.856372-1.65802-.295786.67978-.478559 1.42398-.552505 2.23261-.083713.80732-.078132 1.23201.013952 1.27409-.835734.8507-1.254298 1.88286-1.254298 3.09383 0 .78497.09906 1.49236.287414 2.12085.19254.62455.436702 1.13735.726907 1.52917.295785.39314.65296.73894 1.085477 1.03478.428331.29979.824571.51674 1.183141.65348.359966.14069.768764.24588 1.237556.31951.459025.07626.806433.11702 1.049201.12886.231605.01183.48693.01446.760392.01446.061389 0 .269276.00657.608313.01578.333456.01315.62087.01972.844105.01972.223234 0 .510648-.00657.844104-.01972.341828-.00921.546924-.01578.608314-.01578.273462 0 .527391-.00526.760392-.01446.241372-.01052.590175-.0526 1.050596-.12886.466002-.07494.87759-.18145 1.23616-.31951s.754811-.35238 1.185932-.65348c.431121-.29321.788296-.64033 1.084082-1.03478.291599-.39051.534367-.9033.726906-1.52917.189749-.62849.287414-1.33588.287414-2.12085 0-1.21097-.419959-2.24313-1.252902-3.09383zm-6.493328 8.19413-.073946-.00263c-1.872377 0-3.280149-.21038-4.226104-.63639-.947351-.42338-1.420328-1.29775-1.420328-2.61523 0-.78759.295785-1.4253.87759-1.91442.251138-.21169.563666-.35764.950141-.44442.382288-.08283.735277-.12096 1.065943-.11176.322295.01315.775739.03945 1.353358.08021.577619.04207 1.04362.06311 1.471951.06311.315319 0 .901309-.02893 1.75797-.09467.859452-.06311 1.497065-.06311 1.908654 0 .422749.06574.791086.23273 1.105009.51016.609709.51016.915261 1.15049.915261 1.91442 0 1.31748-.48693 2.19185-1.442652 2.61654-.958512.42339-2.370469.63508-4.242847.63508zm-2.708111-4.4626c-.315318 0-.583199.13675-.799457.4155-.216259.27611-.32369.61534-.32369 1.019s.108827.74421.32369 1.02032c.216258.27744.484139.41418.799457.41418.2916 0 .545529-.13937.760392-.41418.216259-.2748.32369-.61534.32369-1.02032 0-.40366-.108827-.7442-.32369-1.019-.213468-.27875-.466001-.4155-.760392-.4155zm5.377157 0c-.309738 0-.58041.13675-.796668.4155-.216258.27611-.322294.61534-.322294 1.019s.110222.74421.322294 1.02032c.216258.27744.484139.41418.796668.41418.292995 0 .546924-.13937.763182-.41418.216258-.2748.323689-.61534.323689-1.02032 0-.40366-.108826-.7442-.323689-1.019-.216258-.27875-.466002-.4155-.763182-.4155z" fill="#031e34" fill-rule="evenodd" transform="translate(-717 -1093)"/></svg>

<?xml version="1.0" encoding="UTF-8"?>
<svg width="29px" height="33px" viewBox="0 0 29 33" version="1.1" xmlns="http://www.w3.org/2000/svg" xmlns:xlink="http://www.w3.org/1999/xlink">
    <!-- Generator: Sketch 51 (57462) - http://www.bohemiancoding.com/sketch -->
    <title>github-social-icon</title>
    <desc>Created with Sketch.</desc>
    <defs></defs>
    <g id="Symbols" stroke="none" stroke-width="1" fill="none" fill-rule="evenodd">
        <g id="footer" transform="translate(-85.000000, -726.000000)" fill="#031E34">
            <g transform="translate(-632.000000, -367.000000)" id="github-social-icon">
                <path d="M731.289419,1093 L745.578838,1101.25 L745.578838,1117.75 L731.289419,1126 L717,1117.75 L717,1101.25 L731.289419,1093 Z M738.027371,1107.0637 L738.025976,1107.0637 C738.116665,1107.02162 738.122246,1106.59693 738.035742,1105.78961 C737.961796,1104.98361 737.779023,1104.23678 737.481842,1103.557 L737.04235,1103.65167 C736.749355,1103.69374 736.283353,1103.85547 735.634578,1104.12896 C734.99557,1104.40639 734.327263,1104.7706 733.62826,1105.21502 C733.153887,1105.0888 732.443723,1105.02305 731.494977,1105.02305 C730.590879,1105.02305 729.88211,1105.08748 729.36309,1105.21502 C727.828354,1104.21574 726.547547,1103.66087 725.506718,1103.557 C725.210932,1104.23678 725.028159,1104.98098 724.954213,1105.78961 C724.8705,1106.59693 724.876081,1107.02162 724.968165,1107.0637 C724.132431,1107.9144 723.713867,1108.94656 723.713867,1110.15753 C723.713867,1110.9425 723.812927,1111.64989 724.001281,1112.27838 C724.193821,1112.90293 724.437983,1113.41573 724.728188,1113.80755 C725.023973,1114.20069 725.381148,1114.54649 725.813665,1114.84233 C726.241996,1115.14212 726.638236,1115.35907 726.996806,1115.49581 C727.356772,1115.6365 727.76557,1115.74169 728.234362,1115.81532 C728.693387,1115.89158 729.040795,1115.93234 729.283563,1115.94418 C729.515168,1115.95601 729.770493,1115.95864 730.043955,1115.95864 C730.105344,1115.95864 730.313231,1115.96521 730.652268,1115.97442 C730.985724,1115.98757 731.273138,1115.99414 731.496373,1115.99414 C731.719607,1115.99414 732.007021,1115.98757 732.340477,1115.97442 C732.682305,1115.96521 732.887401,1115.95864 732.948791,1115.95864 C733.222253,1115.95864 733.476182,1115.95338 733.709183,1115.94418 C733.950555,1115.93366 734.299358,1115.89158 734.759779,1115.81532 C735.225781,1115.74038 735.637369,1115.63387 735.995939,1115.49581 C736.354509,1115.35775 736.75075,1115.14343 737.181871,1114.84233 C737.612992,1114.54912 737.970167,1114.202 738.265953,1113.80755 C738.557552,1113.41704 738.80032,1112.90425 738.992859,1112.27838 C739.182608,1111.64989 739.280273,1110.9425 739.280273,1110.15753 C739.280273,1108.94656 738.860314,1107.9144 738.027371,1107.0637 Z M731.534043,1115.25783 L731.460097,1115.2552 C729.58772,1115.2552 728.179948,1115.04482 727.233993,1114.61881 C726.286642,1114.19543 725.813665,1113.32106 725.813665,1112.00358 C725.813665,1111.21599 726.10945,1110.57828 726.691255,1110.08916 C726.942393,1109.87747 727.254921,1109.73152 727.641396,1109.64474 C728.023684,1109.56191 728.376673,1109.52378 728.707339,1109.53298 C729.029634,1109.54613 729.483078,1109.57243 730.060697,1109.61319 C730.638316,1109.65526 731.104317,1109.6763 731.532648,1109.6763 C731.847967,1109.6763 732.433957,1109.64737 733.290618,1109.58163 C734.15007,1109.51852 734.787683,1109.51852 735.199272,1109.58163 C735.622021,1109.64737 735.990358,1109.81436 736.304281,1110.09179 C736.91399,1110.60195 737.219542,1111.24228 737.219542,1112.00621 C737.219542,1113.32369 736.732612,1114.19806 735.77689,1114.62275 C734.818378,1115.04614 733.406421,1115.25783 731.534043,1115.25783 Z M728.825932,1110.79523 C728.510614,1110.79523 728.242733,1110.93198 728.026475,1111.21073 C727.810216,1111.48684 727.702785,1111.82607 727.702785,1112.22973 C727.702785,1112.63339 727.811612,1112.97394 728.026475,1113.25005 C728.242733,1113.52749 728.510614,1113.66423 728.825932,1113.66423 C729.117532,1113.66423 729.371461,1113.52486 729.586324,1113.25005 C729.802583,1112.97525 729.910014,1112.63471 729.910014,1112.22973 C729.910014,1111.82607 729.801187,1111.48553 729.586324,1111.21073 C729.372856,1110.93198 729.120323,1110.79523 728.825932,1110.79523 Z M734.203089,1110.79523 C733.893351,1110.79523 733.622679,1110.93198 733.406421,1111.21073 C733.190163,1111.48684 733.084127,1111.82607 733.084127,1112.22973 C733.084127,1112.63339 733.194349,1112.97394 733.406421,1113.25005 C733.622679,1113.52749 733.89056,1113.66423 734.203089,1113.66423 C734.496084,1113.66423 734.750013,1113.52486 734.966271,1113.25005 C735.182529,1112.97525 735.28996,1112.63471 735.28996,1112.22973 C735.28996,1111.82607 735.181134,1111.48553 734.966271,1111.21073 C734.750013,1110.93198 734.500269,1110.79523 734.203089,1110.79523 Z"></path>
            </g>
        </g>
    </g>
</svg>
